Newaita-dark/apps/48/preferences-desktop-notification-bell.svg

<svg height="48" viewBox="0 0 48 48" width="48" xmlns="http://www.w3.org/2000/svg" xmlns:xlink="http://www.w3.org/1999/xlink"><linearGradient id="a"><stop offset="0" stop-opacity=".313726"/><stop offset=".222222" stop-opacity=".27451"/><stop offset="1" stop-opacity="0"/></linearGradient><radialGradient id="b" cx="450.908936" cy="189.579361" gradientTransform="matrix(.00000026 -.117199 -.210958 -.00000015 63.807879 95.392996)" gradientUnits="userSpaceOnUse" r="21.166656" xlink:href="#a"/><radialGradient id="c" cx="450.908936" cy="189.579361" gradientTransform="matrix(-.00000026 .117199 .210958 .00000015 -16.178332 -11.291221)" gradientUnits="userSpaceOnUse" r="21.166656" xlink:href="#a"/><radialGradient id="d" cx="450.908936" cy="189.579361" gradientTransform="matrix(-.00000026 -.117199 .210958 -.00000015 -16.178332 95.392996)" gradientUnits="userSpaceOnUse" r="21.166656" xlink:href="#a"/><radialGradient id="e" cx="450.908936" cy="189.579361" gradientTransform="matrix(.00000026 .117199 -.210958 .00000015 63.807876 -11.291222)" gradientUnits="userSpaceOnUse" r="21.166656" xlink:href="#a"/><linearGradient id="f" gradientTransform="matrix(.0200401 0 0 .074923 18.698073 24.955063)" gradientUnits="userSpaceOnUse" x1="255.322968" x2="255.323044" y1="228.178589" y2="254.666656"><stop offset="0" stop-opacity=".27451"/><stop offset="1" stop-opacity="0"/></linearGradient><linearGradient id="g"><stop offset="0" stop-color="#ffa726"/><stop offset="1" stop-color="#ffb74d"/></linearGradient><linearGradient id="h" gradientUnits="userSpaceOnUse" x1="25.7993504999" x2="25.7993504999" xlink:href="#g" y1="38.08177100005" y2="42.0509015"/><linearGradient id="i" gradientUnits="userSpaceOnUse" x1="22.82250375005" x2="22.82250375005" xlink:href="#g" y1="10.29785299995" y2="4.3441580001"/><linearGradient id="j" gradientUnits="userSpaceOnUse" x1="23.814816" x2="23.814816" xlink:href="#g" y1="42.05096580616" y2="4.34417306195"/><path d="m24.3125 42.050781h3.96875v-1.984375h-3.96875zm0 0" fill="url(#b)"/><path d="m23.320312 42.050781h-3.972656v1.984375h3.972656zm0 0" fill="url(#c)"/><path d="m23.320312 42.050781h-3.972656v-1.984375h3.972656zm0 0" fill="url(#d)"/><path d="m24.3125 42.050781h3.96875v1.984375h-3.96875zm0 0" fill="url(#e)"/><path d="m23.320312 42.054688h.992188v1.980468h-.992188zm0 0" fill="url(#f)"/><path d="m23.816406 34.113281c2.191406 0 3.96875 1.777344 3.96875 3.96875 0 2.191407-1.777344 3.96875-3.96875 3.96875-2.195312 0-3.972656-1.777343-3.972656-3.96875 0-2.191406 1.777344-3.96875 3.972656-3.96875zm0 0" fill="url(#h)"/><path d="m19.863281 37.710938c-.011719.121093-.019531.246093-.019531.371093 0 2.199219 1.773438 3.96875 3.972656 3.96875 2.195313 0 3.96875-1.769531 3.96875-3.96875 0-.125-.007812-.25-.019531-.371093-.183594 2.023437-1.878906 3.597656-3.949219 3.597656-2.074218 0-3.765625-1.574219-3.953125-3.597656zm0 0" fill-opacity=".235294"/><path d="m254.017409 148.840255c23.372768 0 42.329291 18.956523 42.329291 42.329291s-18.956523 42.329291-42.329291 42.329291c-23.41443 0-42.370954-18.956523-42.370954-42.329291s18.956524-42.329291 42.370954-42.329291zm0 0" fill="none" stroke="#212121" stroke-linecap="round" stroke-linejoin="round" stroke-width="3" transform="matrix(.093759 0 0 .093759 0 20.158175)"/><path d="m23.816406 4.34375c1.09375 0 1.984375.890625 1.984375 1.984375v1.984375c0 1.097656-.890625 1.984375-1.984375 1.984375-1.097656 0-1.984375-.886719-1.984375-1.984375v-1.984375c0-1.09375.886719-1.984375 1.984375-1.984375zm0 0" fill="url(#i)"/><path d="m23.816406 4.34375c-1.101562 0-1.984375.886719-1.984375 1.984375v.746094c0-1.101563.882813-1.984375 1.984375-1.984375 1.097656 0 1.984375.882812 1.984375 1.984375v-.746094c0-1.097656-.886719-1.984375-1.984375-1.984375zm0 0" fill="#fff" fill-opacity=".392157"/><path d="m254.017409-168.671091c11.665553 0 21.164646 9.499093 21.164646 21.164646v21.164645c0 11.707216-9.499093 21.164646-21.164646 21.164646-11.707215 0-21.164645-9.45743-21.164645-21.164646v-21.164645c0-11.665553 9.45743-21.164646 21.164645-21.164646zm0 0" fill="none" stroke="#212121" stroke-linecap="round" stroke-linejoin="round" stroke-width="3" transform="matrix(.093759 0 0 .093759 0 20.158175)"/><path d="m23.816406 6.328125c-6.597656 0-11.910156 5.3125-11.910156 11.90625v11.414063l-3.625 5.441406c-.875 1.3125.0625 3.070312 1.640625 3.070312h27.785156c1.578125 0 2.519531-1.757812 1.644531-3.070312l-3.628906-5.441406v-11.414063c0-6.59375-5.3125-11.90625-11.90625-11.90625zm0 0" fill="url(#j)"/><path d="m23.816406 6.328125c-6.597656 0-11.910156 5.3125-11.910156 11.90625v.496094c0-6.59375 5.3125-11.90625 11.910156-11.90625 6.59375 0 11.90625 5.3125 11.90625 11.90625v-.496094c0-6.59375-5.3125-11.90625-11.90625-11.90625zm-11.910156 23.320313-3.625 5.441406c-.285156.421875-.378906.894531-.320312 1.335937.035156-.285156.140624-.570312.320312-.839843l3.625-5.441407zm23.816406 0v.496093l3.628906 5.441407c.175782.269531.28125.554687.316407.839843.058593-.441406-.035157-.914062-.316407-1.335937zm0 0" fill="#fff" fill-opacity=".392157"/><path d="m7.960938 35.929688c-.144532 1.117187.707031 2.230468 1.960937 2.230468h27.785156c1.253907 0 2.105469-1.113281 1.960938-2.230468-.117188.929687-.894531 1.734374-1.960938 1.734374h-27.785156c-1.066406 0-1.84375-.804687-1.960937-1.734374zm0 0" fill-opacity=".235294"/><path d="m960.065849 255.093763c-265.958868 0-480.111657 214.152789-480.111657 479.954192v460.113566l-146.127786 219.349144c-35.272224 52.908336 2.519445 123.767714 66.135421 123.767714h1120.050579c63.615976 0 101.56511-70.859378 66.292886-123.767714l-146.285251-219.349144v-460.113566c0-265.801403-214.152789-479.954192-479.954192-479.954192zm0 0" fill="none" stroke="#212121" stroke-linecap="round" stroke-linejoin="round" stroke-width="11.338583" transform="scale(.0248071)"/><path d="m19.851562 38.328125c.011719.167969.03125.332031.0625.496094h7.800782c.03125-.164063.050781-.328125.0625-.496094zm0 0" fill-opacity=".235294"/><path d="m20.140625 10.050781c.714844.410157.625 1.898438-.199219 3.320313-.820312 1.425781-2.0625 2.246094-2.777344 1.835937-.710937-.414062-.621093-1.898437.199219-3.324219.824219-1.421874 2.066407-2.242187 2.777344-1.832031zm0 0" fill="#fff" fill-opacity=".196078"/></svg>

<?xml version="1.0" encoding="UTF-8"?>
<svg xmlns="http://www.w3.org/2000/svg" xmlns:xlink="http://www.w3.org/1999/xlink" width="48px" height="48px" viewBox="0 0 48 48" version="1.1">
<defs>
<radialGradient id="radial0" gradientUnits="userSpaceOnUse" cx="450.908936" cy="189.579361" fx="450.908936" fy="189.579361" r="21.166656" gradientTransform="matrix(0.000000261256,-0.117199,-0.210958,-0.000000152308,63.807879,95.392996)">
<stop offset="0" style="stop-color:rgb(0%,0%,0%);stop-opacity:0.313726;"/>
<stop offset="0.222222" style="stop-color:rgb(0%,0%,0%);stop-opacity:0.27451;"/>
<stop offset="1" style="stop-color:rgb(0%,0%,0%);stop-opacity:0;"/>
</radialGradient>
<radialGradient id="radial1" gradientUnits="userSpaceOnUse" cx="450.908936" cy="189.579361" fx="450.908936" fy="189.579361" r="21.166656" gradientTransform="matrix(-0.000000261256,0.117199,0.210958,0.000000152308,-16.178332,-11.291221)">
<stop offset="0" style="stop-color:rgb(0%,0%,0%);stop-opacity:0.313726;"/>
<stop offset="0.222222" style="stop-color:rgb(0%,0%,0%);stop-opacity:0.27451;"/>
<stop offset="1" style="stop-color:rgb(0%,0%,0%);stop-opacity:0;"/>
</radialGradient>
<radialGradient id="radial2" gradientUnits="userSpaceOnUse" cx="450.908936" cy="189.579361" fx="450.908936" fy="189.579361" r="21.166656" gradientTransform="matrix(-0.000000261256,-0.117199,0.210958,-0.000000152308,-16.178332,95.392996)">
<stop offset="0" style="stop-color:rgb(0%,0%,0%);stop-opacity:0.313726;"/>
<stop offset="0.222222" style="stop-color:rgb(0%,0%,0%);stop-opacity:0.27451;"/>
<stop offset="1" style="stop-color:rgb(0%,0%,0%);stop-opacity:0;"/>
</radialGradient>
<radialGradient id="radial3" gradientUnits="userSpaceOnUse" cx="450.908936" cy="189.579361" fx="450.908936" fy="189.579361" r="21.166656" gradientTransform="matrix(0.000000261256,0.117199,-0.210958,0.000000152308,63.807876,-11.291222)">
<stop offset="0" style="stop-color:rgb(0%,0%,0%);stop-opacity:0.313726;"/>
<stop offset="0.222222" style="stop-color:rgb(0%,0%,0%);stop-opacity:0.27451;"/>
<stop offset="1" style="stop-color:rgb(0%,0%,0%);stop-opacity:0;"/>
</radialGradient>
<linearGradient id="linear0" gradientUnits="userSpaceOnUse" x1="255.322968" y1="228.178589" x2="255.323044" y2="254.666656" gradientTransform="matrix(0.0200401,0,0,0.074923,18.698073,24.955063)">
<stop offset="0" style="stop-color:rgb(0%,0%,0%);stop-opacity:0.27451;"/>
<stop offset="1" style="stop-color:rgb(0%,0%,0%);stop-opacity:0;"/>
</linearGradient>
<linearGradient id="linear1" gradientUnits="userSpaceOnUse" x1="275.166656" y1="191.166672" x2="275.166656" y2="233.5" gradientTransform="matrix(0.093759,0,0,0.093759,0,20.158175)">
<stop offset="0" style="stop-color:rgb(100%,65.490198%,14.901961%);stop-opacity:1;"/>
<stop offset="1" style="stop-color:rgb(100%,71.764708%,30.19608%);stop-opacity:1;"/>
</linearGradient>
<linearGradient id="linear2" gradientUnits="userSpaceOnUse" x1="243.416672" y1="-105.166672" x2="243.416672" y2="-168.666656" gradientTransform="matrix(0.093759,0,0,0.093759,0,20.158175)">
<stop offset="0" style="stop-color:rgb(100%,65.490198%,14.901961%);stop-opacity:1;"/>
<stop offset="1" style="stop-color:rgb(100%,71.764708%,30.19608%);stop-opacity:1;"/>
</linearGradient>
<linearGradient id="linear3" gradientUnits="userSpaceOnUse" x1="960" y1="1695.118164" x2="960" y2="175.118134" gradientTransform="matrix(0.0248071,0,0,0.0248071,0,0.00000000000000282)">
<stop offset="0" style="stop-color:rgb(100%,65.490198%,14.901961%);stop-opacity:1;"/>
<stop offset="1" style="stop-color:rgb(100%,71.764708%,30.19608%);stop-opacity:1;"/>
</linearGradient>
</defs>
<g id="surface1">
<path style=" stroke:none;fill-rule:nonzero;fill:url(#radial0);" d="M 24.3125 42.050781 L 28.28125 42.050781 L 28.28125 40.066406 L 24.3125 40.066406 Z M 24.3125 42.050781 "/>
<path style=" stroke:none;fill-rule:nonzero;fill:url(#radial1);" d="M 23.320312 42.050781 L 19.347656 42.050781 L 19.347656 44.035156 L 23.320312 44.035156 Z M 23.320312 42.050781 "/>
<path style=" stroke:none;fill-rule:nonzero;fill:url(#radial2);" d="M 23.320312 42.050781 L 19.347656 42.050781 L 19.347656 40.066406 L 23.320312 40.066406 Z M 23.320312 42.050781 "/>
<path style=" stroke:none;fill-rule:nonzero;fill:url(#radial3);" d="M 24.3125 42.050781 L 28.28125 42.050781 L 28.28125 44.035156 L 24.3125 44.035156 Z M 24.3125 42.050781 "/>
<path style=" stroke:none;fill-rule:nonzero;fill:url(#linear0);" d="M 23.320312 42.054688 L 24.3125 42.054688 L 24.3125 44.035156 L 23.320312 44.035156 Z M 23.320312 42.054688 "/>
<path style=" stroke:none;fill-rule:nonzero;fill:url(#linear1);" d="M 23.816406 34.113281 C 26.007812 34.113281 27.785156 35.890625 27.785156 38.082031 C 27.785156 40.273438 26.007812 42.050781 23.816406 42.050781 C 21.621094 42.050781 19.84375 40.273438 19.84375 38.082031 C 19.84375 35.890625 21.621094 34.113281 23.816406 34.113281 Z M 23.816406 34.113281 "/>
<path style=" stroke:none;fill-rule:nonzero;fill:rgb(0%,0%,0%);fill-opacity:0.235294;" d="M 19.863281 37.710938 C 19.851562 37.832031 19.84375 37.957031 19.84375 38.082031 C 19.84375 40.28125 21.617188 42.050781 23.816406 42.050781 C 26.011719 42.050781 27.785156 40.28125 27.785156 38.082031 C 27.785156 37.957031 27.777344 37.832031 27.765625 37.710938 C 27.582031 39.734375 25.886719 41.308594 23.816406 41.308594 C 21.742188 41.308594 20.050781 39.734375 19.863281 37.710938 Z M 19.863281 37.710938 "/>
<path style="fill:none;stroke-width:3;stroke-linecap:round;stroke-linejoin:round;stroke:rgb(12.941177%,12.941177%,12.941177%);stroke-opacity:1;stroke-miterlimit:4;" d="M 254.017409 148.840255 C 277.390177 148.840255 296.3467 167.796778 296.3467 191.169546 C 296.3467 214.542314 277.390177 233.498837 254.017409 233.498837 C 230.602979 233.498837 211.646455 214.542314 211.646455 191.169546 C 211.646455 167.796778 230.602979 148.840255 254.017409 148.840255 Z M 254.017409 148.840255 " transform="matrix(0.093759,0,0,0.093759,0,20.158175)"/>
<path style=" stroke:none;fill-rule:nonzero;fill:url(#linear2);" d="M 23.816406 4.34375 C 24.910156 4.34375 25.800781 5.234375 25.800781 6.328125 L 25.800781 8.3125 C 25.800781 9.410156 24.910156 10.296875 23.816406 10.296875 C 22.71875 10.296875 21.832031 9.410156 21.832031 8.3125 L 21.832031 6.328125 C 21.832031 5.234375 22.71875 4.34375 23.816406 4.34375 Z M 23.816406 4.34375 "/>
<path style=" stroke:none;fill-rule:nonzero;fill:rgb(100%,100%,100%);fill-opacity:0.392157;" d="M 23.816406 4.34375 C 22.714844 4.34375 21.832031 5.230469 21.832031 6.328125 L 21.832031 7.074219 C 21.832031 5.972656 22.714844 5.089844 23.816406 5.089844 C 24.914062 5.089844 25.800781 5.972656 25.800781 7.074219 L 25.800781 6.328125 C 25.800781 5.230469 24.914062 4.34375 23.816406 4.34375 Z M 23.816406 4.34375 "/>
<path style="fill:none;stroke-width:3;stroke-linecap:round;stroke-linejoin:round;stroke:rgb(12.941177%,12.941177%,12.941177%);stroke-opacity:1;stroke-miterlimit:4;" d="M 254.017409 -168.671091 C 265.682962 -168.671091 275.182055 -159.171998 275.182055 -147.506445 L 275.182055 -126.3418 C 275.182055 -114.634584 265.682962 -105.177154 254.017409 -105.177154 C 242.310194 -105.177154 232.852764 -114.634584 232.852764 -126.3418 L 232.852764 -147.506445 C 232.852764 -159.171998 242.310194 -168.671091 254.017409 -168.671091 Z M 254.017409 -168.671091 " transform="matrix(0.093759,0,0,0.093759,0,20.158175)"/>
<path style=" stroke:none;fill-rule:nonzero;fill:url(#linear3);" d="M 23.816406 6.328125 C 17.21875 6.328125 11.90625 11.640625 11.90625 18.234375 L 11.90625 29.648438 L 8.28125 35.089844 C 7.40625 36.402344 8.34375 38.160156 9.921875 38.160156 L 37.707031 38.160156 C 39.285156 38.160156 40.226562 36.402344 39.351562 35.089844 L 35.722656 29.648438 L 35.722656 18.234375 C 35.722656 11.640625 30.410156 6.328125 23.816406 6.328125 Z M 23.816406 6.328125 "/>
<path style=" stroke:none;fill-rule:nonzero;fill:rgb(100%,100%,100%);fill-opacity:0.392157;" d="M 23.816406 6.328125 C 17.21875 6.328125 11.90625 11.640625 11.90625 18.234375 L 11.90625 18.730469 C 11.90625 12.136719 17.21875 6.824219 23.816406 6.824219 C 30.410156 6.824219 35.722656 12.136719 35.722656 18.730469 L 35.722656 18.234375 C 35.722656 11.640625 30.410156 6.328125 23.816406 6.328125 Z M 11.90625 29.648438 L 8.28125 35.089844 C 7.996094 35.511719 7.902344 35.984375 7.960938 36.425781 C 7.996094 36.140625 8.101562 35.855469 8.28125 35.585938 L 11.90625 30.144531 Z M 35.722656 29.648438 L 35.722656 30.144531 L 39.351562 35.585938 C 39.527344 35.855469 39.632812 36.140625 39.667969 36.425781 C 39.726562 35.984375 39.632812 35.511719 39.351562 35.089844 Z M 35.722656 29.648438 "/>
<path style=" stroke:none;fill-rule:nonzero;fill:rgb(0%,0%,0%);fill-opacity:0.235294;" d="M 7.960938 35.929688 C 7.816406 37.046875 8.667969 38.160156 9.921875 38.160156 L 37.707031 38.160156 C 38.960938 38.160156 39.8125 37.046875 39.667969 35.929688 C 39.550781 36.859375 38.773438 37.664062 37.707031 37.664062 L 9.921875 37.664062 C 8.855469 37.664062 8.078125 36.859375 7.960938 35.929688 Z M 7.960938 35.929688 "/>
<path style="fill:none;stroke-width:11.338583;stroke-linecap:round;stroke-linejoin:round;stroke:rgb(12.941177%,12.941177%,12.941177%);stroke-opacity:1;stroke-miterlimit:4;" d="M 960.065849 255.093763 C 694.106981 255.093763 479.954192 469.246552 479.954192 735.047955 L 479.954192 1195.161521 L 333.826406 1414.510665 C 298.554182 1467.419001 336.345851 1538.278379 399.961827 1538.278379 L 1520.012406 1538.278379 C 1583.628382 1538.278379 1621.577516 1467.419001 1586.305292 1414.510665 L 1440.020041 1195.161521 L 1440.020041 735.047955 C 1440.020041 469.246552 1225.867252 255.093763 960.065849 255.093763 Z M 960.065849 255.093763 " transform="matrix(0.0248071,0,0,0.0248071,0,0)"/>
<path style=" stroke:none;fill-rule:nonzero;fill:rgb(0%,0%,0%);fill-opacity:0.235294;" d="M 19.851562 38.328125 C 19.863281 38.496094 19.882812 38.660156 19.914062 38.824219 L 27.714844 38.824219 C 27.746094 38.660156 27.765625 38.496094 27.777344 38.328125 Z M 19.851562 38.328125 "/>
<path style=" stroke:none;fill-rule:nonzero;fill:rgb(100%,100%,100%);fill-opacity:0.196078;" d="M 20.140625 10.050781 C 20.855469 10.460938 20.765625 11.949219 19.941406 13.371094 C 19.121094 14.796875 17.878906 15.617188 17.164062 15.207031 C 16.453125 14.792969 16.542969 13.308594 17.363281 11.882812 C 18.1875 10.460938 19.429688 9.640625 20.140625 10.050781 Z M 20.140625 10.050781 "/>
</g>
</svg>
